src/nationalrail/nationalrail-black.svg

<svg xmlns="http://www.w3.org/2000/svg" width="128" height="128"><path d="M89.008 89.111c-.071-.062-5.981-2.792-13.133-6.067l-13.004-5.954 20.565-.034 20.564-.035-.036-4.033-.036-4.033-20.417-.068-20.417-.068 9.754-4.745 9.754-4.745 10.662-.068 10.662-.068.036-4.101.038-4.102h-21.183l-12.616-6.101-12.616-6.101h-9.428c-5.186 0-9.37.051-9.299.114.071.063 5.963 2.793 13.093 6.067l12.964 5.953-20.457.034-20.458.035.036 4.101.036 4.101 20.461.068 20.461.068-9.829 4.779-9.829 4.779h-21.332v8.134l10.609.005 10.609.005 12.541 6.083 12.541 6.083 9.416.012c5.179.009 9.358-.036 9.288-.098z"/></svg>

<?xml version="1.0" encoding="UTF-8" standalone="no"?>
<!-- Created with Inkscape (http://www.inkscape.org/) -->

<svg
   xmlns:dc="http://purl.org/dc/elements/1.1/"
   xmlns:cc="http://creativecommons.org/ns#"
   xmlns:rdf="http://www.w3.org/1999/02/22-rdf-syntax-ns#"
   xmlns:svg="http://www.w3.org/2000/svg"
   xmlns="http://www.w3.org/2000/svg"
   xmlns:inkscape="http://www.inkscape.org/namespaces/inkscape"
   version="1.1"
   width="128"
   height="128"
   id="svg2">
  <metadata
     id="metadata10">
    <rdf:RDF>
      <cc:Work
         rdf:about="">
        <dc:format>image/svg+xml</dc:format>
        <dc:type
           rdf:resource="http://purl.org/dc/dcmitype/StillImage" />
      </cc:Work>
    </rdf:RDF>
  </metadata>
  <defs
     id="defs8" />
  <path
     d="M 89.008,89.111 C 88.937,89.049 83.027,86.319 75.875,83.044 L 62.871,77.09 83.436,77.056 104,77.021 l -0.036,-4.033 -0.036,-4.033 -20.417,-0.068 -20.417,-0.068 9.754,-4.745 9.754,-4.745 10.662,-0.068 10.662,-0.068 0.036,-4.101 L 104,50.99 H 82.817 L 70.201,44.889 57.585,38.788 h -9.428 c -5.186,0 -9.37,0.051 -9.299,0.114 0.071,0.063 5.963,2.793 13.093,6.067 L 64.915,50.922 44.458,50.956 24,50.991 l 0.036,4.101 0.036,4.101 20.461,0.068 20.461,0.068 -9.829,4.779 -9.829,4.779 H 24.004 v 8.134 l 10.609,0.005 10.609,0.005 12.541,6.083 12.541,6.083 9.416,0.012 c 5.179,0.009 9.358,-0.036 9.288,-0.098 z"
     inkscape:connector-curvature="0"
     id="path4" />
</svg>
